assets/img/braze_icons/cloud-snowing-02.svg

<svg fill="none" height="24" viewBox="0 0 24 24" width="24" xmlns="http://www.w3.org/2000/svg"><g fill="#801ed7"><path d="m12 1c-2.31095 0-4.33874 1.20617-5.49059 3.01977-3.08425.24959-5.50941 2.8317-5.50941 5.98023 0 3.3137 2.68629 6 6 6h10.5c3.0376 0 5.5-2.4624 5.5-5.5 0-2.86519-2.1909-5.21866-4.9888-5.47655-.9737-2.36082-3.2972-4.02345-6.0112-4.02345z"/><path d="m8 17c-.55228 0-1 .4477-1 1s.44772 1 1 1h.01c.55228 0 1-.4477 1-1s-.44772-1-1-1z"/><path d="m8 20c-.55228 0-1 .4477-1 1s.44772 1 1 1h.01c.55228 0 1-.4477 1-1s-.44772-1-1-1z"/><path d="m11 18.5c0-.5523.4477-1 1-1h.01c.5523 0 1 .4477 1 1s-.4477 1-1 1h-.01c-.5523 0-1-.4477-1-1z"/><path d="m12 20.5c-.5523 0-1 .4477-1 1s.4477 1 1 1h.01c.5523 0 1-.4477 1-1s-.4477-1-1-1z"/><path d="m15 18c0-.5523.4477-1 1-1h.01c.5523 0 1 .4477 1 1s-.4477 1-1 1h-.01c-.5523 0-1-.4477-1-1z"/><path d="m16 20c-.5523 0-1 .4477-1 1s.4477 1 1 1h.01c.5523 0 1-.4477 1-1s-.4477-1-1-1z"/></g></svg>

<svg width="24" height="24" viewBox="0 0 24 24" fill="none" xmlns="http://www.w3.org/2000/svg">
<path d="M12 1C9.68905 1 7.66126 2.20617 6.50941 4.01977C3.42516 4.26936 1 6.85147 1 10C1 13.3137 3.68629 16 7 16H17.5C20.5376 16 23 13.5376 23 10.5C23 7.63481 20.8091 5.28134 18.0112 5.02345C17.0375 2.66263 14.714 1 12 1Z" fill="#801ED7"/>
<path d="M8 17C7.44772 17 7 17.4477 7 18C7 18.5523 7.44772 19 8 19H8.01C8.56228 19 9.01 18.5523 9.01 18C9.01 17.4477 8.56228 17 8.01 17H8Z" fill="#801ED7"/>
<path d="M8 20C7.44772 20 7 20.4477 7 21C7 21.5523 7.44772 22 8 22H8.01C8.56228 22 9.01 21.5523 9.01 21C9.01 20.4477 8.56228 20 8.01 20H8Z" fill="#801ED7"/>
<path d="M11 18.5C11 17.9477 11.4477 17.5 12 17.5H12.01C12.5623 17.5 13.01 17.9477 13.01 18.5C13.01 19.0523 12.5623 19.5 12.01 19.5H12C11.4477 19.5 11 19.0523 11 18.5Z" fill="#801ED7"/>
<path d="M12 20.5C11.4477 20.5 11 20.9477 11 21.5C11 22.0523 11.4477 22.5 12 22.5H12.01C12.5623 22.5 13.01 22.0523 13.01 21.5C13.01 20.9477 12.5623 20.5 12.01 20.5H12Z" fill="#801ED7"/>
<path d="M15 18C15 17.4477 15.4477 17 16 17H16.01C16.5623 17 17.01 17.4477 17.01 18C17.01 18.5523 16.5623 19 16.01 19H16C15.4477 19 15 18.5523 15 18Z" fill="#801ED7"/>
<path d="M16 20C15.4477 20 15 20.4477 15 21C15 21.5523 15.4477 22 16 22H16.01C16.5623 22 17.01 21.5523 17.01 21C17.01 20.4477 16.5623 20 16.01 20H16Z" fill="#801ED7"/>
</svg>
